<?xml version="1.0" encoding="UTF-8"?>
<map version="1.9" tiledversion="1.9.2" orientation="orthogonal" renderorder="right-down" width="10" height="10" tilewidth="64" tileheight="64" infinite="0" nextlayerid="2" nextobjectid="1">
 <properties>
  <property name="Collision" type="bool" value="false"/>
 </properties>
 <tileset firstgid="1" name="TileMap" tilewidth="64" tileheight="64" tilecount="16" columns="8">
  <image source="TileMap.png" width="512" height="128"/>
  <tile id="0">
   <properties>
    <property name="Collision" type="bool" value="false"/>
   </properties>
  </tile>
  <tile id="1">
   <properties>
    <property name="Collision" type="bool" value="false"/>
   </properties>
  </tile>
  <tile id="2">
   <properties>
    <property name="Collision" type="bool" value="false"/>
   </properties>
  </tile>
  <tile id="3">
   <properties>
    <property name="Collision" type="bool" value="false"/>
   </properties>
  </tile>
  <tile id="4">
   <properties>
    <property name="Collision" type="bool" value="false"/>
   </properties>
  </tile>
  <tile id="5">
   <properties>
    <property name="Collision" type="bool" value="false"/>
   </properties>
  </tile>
  <tile id="6">
   <properties>
    <property name="Collision" type="bool" value="false"/>
   </properties>
  </tile>
  <tile id="7">
   <properties>
    <property name="Collision" type="bool" value="true"/>
   </properties>
  </tile>
  <tile id="8">
   <properties>
    <property name="Collision" type="bool" value="false"/>
   </properties>
  </tile>
  <tile id="9">
   <properties>
    <property name="Collision" type="bool" value="false"/>
   </properties>
  </tile>
  <tile id="10">
   <properties>
    <property name="Collision" type="bool" value="false"/>
   </properties>
  </tile>
  <tile id="11">
   <properties>
    <property name="Collision" type="bool" value="false"/>
   </properties>
  </tile>
  <tile id="12">
   <properties>
    <property name="Collision" type="bool" value="false"/>
   </properties>
  </tile>
  <tile id="13">
   <properties>
    <property name="Collision" type="bool" value="false"/>
   </properties>
  </tile>
  <tile id="14">
   <properties>
    <property name="Collision" type="bool" value="false"/>
   </properties>
  </tile>
  <tile id="15">
   <properties>
    <property name="Collision" type="bool" value="false"/>
   </properties>
  </tile>
 </tileset>
 <layer id="1" name="Capa de patrones 1" width="10" height="10">
  <data>
   <tile gid="1"/>
   <tile gid="3"/>
   <tile gid="3"/>
   <tile gid="4"/>
   <tile gid="3"/>
   <tile gid="3"/>
   <tile gid="4"/>
   <tile gid="3"/>
   <tile gid="3"/>
   <tile gid="2"/>
   <tile gid="11"/>
   <tile gid="8"/>
   <tile gid="8"/>
   <tile gid="11"/>
   <tile gid="8"/>
   <tile gid="8"/>
   <tile gid="11"/>
   <tile gid="8"/>
   <tile gid="8"/>
   <tile gid="11"/>
   <tile gid="11"/>
   <tile gid="8"/>
   <tile gid="8"/>
   <tile gid="11"/>
   <tile gid="8"/>
   <tile gid="8"/>
   <tile gid="11"/>
   <tile gid="8"/>
   <tile gid="8"/>
   <tile gid="11"/>
   <tile gid="12"/>
   <tile gid="3"/>
   <tile gid="3"/>
   <tile gid="16"/>
   <tile gid="3"/>
   <tile gid="3"/>
   <tile gid="16"/>
   <tile gid="3"/>
   <tile gid="3"/>
   <tile gid="13"/>
   <tile gid="11"/>
   <tile gid="8"/>
   <tile gid="8"/>
   <tile gid="11"/>
   <tile gid="8"/>
   <tile gid="8"/>
   <tile gid="11"/>
   <tile gid="8"/>
   <tile gid="8"/>
   <tile gid="11"/>
   <tile gid="11"/>
   <tile gid="8"/>
   <tile gid="8"/>
   <tile gid="11"/>
   <tile gid="8"/>
   <tile gid="8"/>
   <tile gid="11"/>
   <tile gid="8"/>
   <tile gid="8"/>
   <tile gid="11"/>
   <tile gid="12"/>
   <tile gid="3"/>
   <tile gid="3"/>
   <tile gid="16"/>
   <tile gid="3"/>
   <tile gid="3"/>
   <tile gid="16"/>
   <tile gid="3"/>
   <tile gid="3"/>
   <tile gid="13"/>
   <tile gid="11"/>
   <tile gid="8"/>
   <tile gid="8"/>
   <tile gid="11"/>
   <tile gid="8"/>
   <tile gid="8"/>
   <tile gid="11"/>
   <tile gid="8"/>
   <tile gid="8"/>
   <tile gid="11"/>
   <tile gid="11"/>
   <tile gid="8"/>
   <tile gid="8"/>
   <tile gid="11"/>
   <tile gid="8"/>
   <tile gid="8"/>
   <tile gid="11"/>
   <tile gid="8"/>
   <tile gid="8"/>
   <tile gid="11"/>
   <tile gid="9"/>
   <tile gid="3"/>
   <tile gid="3"/>
   <tile gid="5"/>
   <tile gid="3"/>
   <tile gid="3"/>
   <tile gid="5"/>
   <tile gid="3"/>
   <tile gid="3"/>
   <tile gid="10"/>
  </data>
 </layer>
</map>
